assets/images/fb_share.svg

<svg fill="none" height="40" viewBox="0 0 40 40" width="40" xmlns="http://www.w3.org/2000/svg"><g clip-rule="evenodd" fill-rule="evenodd"><path d="m40 20c0 11.0465-8.9535 20-20 20-11.04651 0-20-8.9535-20-20 0-11.04651 8.95349-20 20-20 11.0465 0 20 8.95349 20 20z" fill="#f9f9fa"/><path d="m16.871 26.0359c0-1.871-.0106-3.742.0106-5.6131 0-.3171-.0846-.4122-.4017-.4017-.5814.0212-1.1628 0-1.7548.0106-.2325.0106-.3277-.0634-.3171-.3066.0106-1.1627.0106-2.3361 0-3.4989 0-.222.0634-.296.296-.296.592.0106 1.1945-.0211 1.7865.0106.3488.0211.4122-.1057.4122-.4228-.0211-.888-.0211-1.7759 0-2.6639.0212-1.0888.3172-2.1036.962-2.98096.8139-1.12051 1.9767-1.62791 3.3192-1.69133 1.3742-.06343 2.759-.03171 4.1438-.04228.1903 0 .2537.06342.2537.2537-.0106 1.18393-.0106 2.36787 0 3.54127 0 .2114-.0634.2748-.2749.2748-.6659-.0106-1.3319-.0106-1.9873 0-.8879 0-1.4165.4545-1.4693 1.3319-.0423.6977-.0106 1.4059-.0317 2.1142-.0106.2537.148.2325.3065.2325 1.0042 0 2.019.0106 3.0233-.0105.296 0 .3911.0634.3594.3699-.1269 1.1734-.2326 2.3468-.3383 3.5307-.0211.2643-.148.3171-.3805.3171-.7928-.0105-1.5962-.0105-2.389 0-.5709 0-.518-.0845-.518.4969 0 3.668-.0106 7.3255.0106 10.9936 0 .3911-.0952.4863-.4757.4757-1.3637-.0211-2.7379-.0211-4.1015 0-.3806.0106-.444-.1268-.444-.4651 0-1.871 0-3.7104 0-5.5603z" fill="#000"/></g></svg>

<svg width="40" height="40" viewBox="0 0 40 40" fill="none" xmlns="http://www.w3.org/2000/svg">
<path fill-rule="evenodd" clip-rule="evenodd" d="M40 20C40 31.0465 31.0465 40 20 40C8.95349 40 0 31.0465 0 20C0 8.95349 8.95349 0 20 0C31.0465 0 40 8.95349 40 20Z" fill="#F9F9FA"/>
<path fill-rule="evenodd" clip-rule="evenodd" d="M16.871 26.0359C16.871 24.1649 16.8604 22.2939 16.8816 20.4228C16.8816 20.1057 16.797 20.0106 16.4799 20.0211C15.8985 20.0423 15.3171 20.0211 14.7251 20.0317C14.4926 20.0423 14.3974 19.9683 14.408 19.7251C14.4186 18.5624 14.4186 17.389 14.408 16.2262C14.408 16.0042 14.4714 15.9302 14.704 15.9302C15.296 15.9408 15.8985 15.9091 16.4905 15.9408C16.8393 15.9619 16.9027 15.8351 16.9027 15.518C16.8816 14.63 16.8816 13.7421 16.9027 12.8541C16.9239 11.7653 17.2199 10.7505 17.8647 9.87314C18.6786 8.75263 19.8414 8.24523 21.1839 8.18181C22.5581 8.11838 23.9429 8.1501 25.3277 8.13953C25.518 8.13953 25.5814 8.20295 25.5814 8.39323C25.5708 9.57716 25.5708 10.7611 25.5814 11.9345C25.5814 12.1459 25.518 12.2093 25.3065 12.2093C24.6406 12.1987 23.9746 12.1987 23.3192 12.2093C22.4313 12.2093 21.9027 12.6638 21.8499 13.5412C21.8076 14.2389 21.8393 14.9471 21.8182 15.6554C21.8076 15.9091 21.9662 15.8879 22.1247 15.8879C23.1289 15.8879 24.1437 15.8985 25.148 15.8774C25.444 15.8774 25.5391 15.9408 25.5074 16.2473C25.3805 17.4207 25.2748 18.5941 25.1691 19.778C25.148 20.0423 25.0211 20.0951 24.7886 20.0951C23.9958 20.0846 23.1924 20.0846 22.3996 20.0951C21.8287 20.0951 21.8816 20.0106 21.8816 20.592C21.8816 24.26 21.871 27.9175 21.8922 31.5856C21.8922 31.9767 21.797 32.0719 21.4165 32.0613C20.0528 32.0402 18.6786 32.0402 17.315 32.0613C16.9344 32.0719 16.871 31.9345 16.871 31.5962C16.871 29.7252 16.871 27.8858 16.871 26.0359Z" fill="black"/>
</svg>
